images/class_icons/sunkeeper.svg

<svg height="400" viewBox="0 0 400 400" width="400" xmlns="http://www.w3.org/2000/svg"><path d="m199.76 1.311c-.692 1.55-16.198 39.55-28.103 68.871-2.071 5.1-3.809 9.258-3.863 9.241-.198-.062-7.292-5.546-27.356-21.148-31.049-24.144-38.108-29.563-39.518-30.336l-.59-.324.077 1.066c.068.951 4.903 36.243 9.275 67.71 1.654 11.903 2.088 15.29 1.976 15.402-.164.164-3.807-.327-45.149-6.084-41.23-5.742-39.393-5.498-39.393-5.226 0 .19 3.181 4.334 13.689 17.831 33.994 43.667 38.493 49.545 38.107 49.788-.513.323-6.754 2.899-24.275 10.019-40.956 16.645-54.224 22.081-54.228 22.216-.006.24 2.164 1.135 39.119 16.145 29.555 12.003 36.099 14.672 38.526 15.71l1.36.582-2.296 2.972c-1.263 1.635-12.608 16.226-25.21 32.424-21.713 27.909-23.982 30.843-24.577 31.783l-.248.391 1.062-.077c.585-.042 14.691-1.961 31.349-4.264 42.782-5.916 52.226-7.204 52.281-7.132.013.018-.086.822-.222 1.787-.355 2.529-8.397 60.88-9.907 71.886-1.254 9.134-1.412 10.609-1.137 10.609.424 0 10.021-7.393 51.127-39.389 8.347-6.498 15.378-11.956 15.623-12.129.536-.379.614-.311 1.144.996.181.445 3.761 9.217 7.955 19.494 22.31 54.654 21.847 53.524 23.07 56.221l.689 1.517.393-.707c1.019-1.832 6.194-14.378 24.247-58.785 5.049-12.418 7.685-18.802 7.819-18.937.139-.139-.558-.673 24.355 18.67 36.336 28.213 39.844 30.914 42.206 32.5l1.06.712-.081-.52c-.045-.286-.267-1.976-.494-3.757s-2.592-19.083-5.257-38.449c-6.245-45.393-5.778-41.619-5.148-41.619.795 0 16.058 2.075 50.614 6.88 30.536 4.247 32.257 4.478 32.935 4.426l.536-.041-1.628-2.199c-.895-1.209-11.935-15.445-24.532-31.636-12.597-16.19-23.563-30.317-24.369-31.393-.806-1.075-1.523-2.031-1.595-2.123-.162-.209-1.625.409 15.483-6.535 53.188-21.587 63.488-25.859 62.984-26.124-1.18-.618-20.647-8.608-54.62-22.418-20.326-8.263-23.183-9.444-23.583-9.755-.215-.166 4.259-6.096 15.899-21.078 2.303-2.964 10.131-13.039 17.396-22.388 12.167-15.66 18.686-24.129 18.686-24.275 0-.033-.197-.03-.438.004-.241.035-1.774.241-3.407.458-1.632.217-12.317 1.699-23.743 3.294-47.364 6.613-56.909 7.905-57.086 7.728-.133-.133 1.166-9.727 7.72-57.024 2.43-17.541 3.735-27.264 3.666-27.327-.202-.184-10.876 8.026-46.329 35.637-16.181 12.601-20.866 16.218-21.15 16.326-.12.046-.312-.254-.586-.917-.225-.543-4.973-12.248-10.553-26.012-19.777-48.784-21.021-51.819-21.268-51.901-.077-.026-.297.304-.489.733m6.108 100.409c3.471.137 4.605.246 8.567.822 57.396 8.339 95.687 64.895 81.871 120.926-16.203 65.717-91.268 96.466-148.394 60.788-31.739-19.823-49.764-56.288-46.116-93.295 4.745-48.127 43.061-85.514 91.459-89.24 3.246-.249 6.342-.25 12.613-.001m-11.736 36.633c-35.591 4.04-60.505 35.699-55.572 70.618 3.822 27.06 24.609 48.314 51.789 52.954 3.899.666 15.974.625 20.026-.068 19.739-3.374 36.846-16.125 45.701-34.064 7.136-14.455 8.296-31.958 3.133-47.252-7.245-21.459-25.544-37.322-47.742-41.385-5.117-.937-12.955-1.3-17.335-.803" fill-rule="evenodd"/></svg>

<svg id="svg" xmlns="http://www.w3.org/2000/svg" xmlns:xlink="http://www.w3.org/1999/xlink" width="400" height="400" viewBox="0, 0, 400,400"><g id="svgg"><path id="path0" d="M199.760 1.311 C 199.068 2.861,183.562 40.861,171.657 70.182 C 169.586 75.282,167.848 79.440,167.794 79.423 C 167.596 79.361,160.502 73.877,140.438 58.275 C 109.389 34.131,102.330 28.712,100.920 27.939 L 100.330 27.615 100.407 28.681 C 100.475 29.632,105.310 64.924,109.682 96.391 C 111.336 108.294,111.770 111.681,111.658 111.793 C 111.494 111.957,107.851 111.466,66.509 105.709 C 25.279 99.967,27.116 100.211,27.116 100.483 C 27.116 100.673,30.297 104.817,40.805 118.314 C 74.799 161.981,79.298 167.859,78.912 168.102 C 78.399 168.425,72.158 171.001,54.637 178.121 C 13.681 194.766,0.413 200.202,0.409 200.337 C 0.403 200.577,2.573 201.472,39.528 216.482 C 69.083 228.485,75.627 231.154,78.054 232.192 L 79.414 232.774 77.118 235.746 C 75.855 237.381,64.510 251.972,51.908 268.170 C 30.195 296.079,27.926 299.013,27.331 299.953 L 27.083 300.344 28.145 300.267 C 28.730 300.225,42.836 298.306,59.494 296.003 C 102.276 290.087,111.720 288.799,111.775 288.871 C 111.788 288.889,111.689 289.693,111.553 290.658 C 111.198 293.187,103.156 351.538,101.646 362.544 C 100.392 371.678,100.234 373.153,100.509 373.153 C 100.933 373.153,110.530 365.760,151.636 333.764 C 159.983 327.266,167.014 321.808,167.259 321.635 C 167.795 321.256,167.873 321.324,168.403 322.631 C 168.584 323.076,172.164 331.848,176.358 342.125 C 198.668 396.779,198.205 395.649,199.428 398.346 L 200.117 399.863 200.510 399.156 C 201.529 397.324,206.704 384.778,224.757 340.371 C 229.806 327.953,232.442 321.569,232.576 321.434 C 232.715 321.295,232.018 320.761,256.931 340.104 C 293.267 368.317,296.775 371.018,299.137 372.604 L 300.197 373.316 300.116 372.796 C 300.071 372.510,299.849 370.820,299.622 369.039 C 299.395 367.258,297.030 349.956,294.365 330.590 C 288.120 285.197,288.587 288.971,289.217 288.971 C 290.012 288.971,305.275 291.046,339.831 295.851 C 370.367 300.098,372.088 300.329,372.766 300.277 L 373.302 300.236 371.674 298.037 C 370.779 296.828,359.739 282.592,347.142 266.401 C 334.545 250.211,323.579 236.084,322.773 235.008 C 321.967 233.933,321.250 232.977,321.178 232.885 C 321.016 232.676,319.553 233.294,336.661 226.350 C 389.849 204.763,400.149 200.491,399.645 200.226 C 398.465 199.608,378.998 191.618,345.025 177.808 C 324.699 169.545,321.842 168.364,321.442 168.053 C 321.227 167.887,325.701 161.957,337.341 146.975 C 339.644 144.011,347.472 133.936,354.737 124.587 C 366.904 108.927,373.423 100.458,373.423 100.312 C 373.423 100.279,373.226 100.282,372.985 100.316 C 372.744 100.351,371.211 100.557,369.578 100.774 C 367.946 100.991,357.261 102.473,345.835 104.068 C 298.471 110.681,288.926 111.973,288.749 111.796 C 288.616 111.663,289.915 102.069,296.469 54.772 C 298.899 37.231,300.204 27.508,300.135 27.445 C 299.933 27.261,289.259 35.471,253.806 63.082 C 237.625 75.683,232.940 79.300,232.656 79.408 C 232.536 79.454,232.344 79.154,232.070 78.491 C 231.845 77.948,227.097 66.243,221.517 52.479 C 201.740 3.695,200.496 0.660,200.249 0.578 C 200.172 0.552,199.952 0.882,199.760 1.311 M205.868 101.720 C 209.339 101.857,210.473 101.966,214.435 102.542 C 271.831 110.881,310.122 167.437,296.306 223.468 C 280.103 289.185,205.038 319.934,147.912 284.256 C 116.173 264.433,98.148 227.968,101.796 190.961 C 106.541 142.834,144.857 105.447,193.255 101.721 C 196.501 101.472,199.597 101.471,205.868 101.720 M194.132 138.353 C 158.541 142.393,133.627 174.052,138.560 208.971 C 142.382 236.031,163.169 257.285,190.349 261.925 C 194.248 262.591,206.323 262.550,210.375 261.857 C 230.114 258.483,247.221 245.732,256.076 227.793 C 263.212 213.338,264.372 195.835,259.209 180.541 C 251.964 159.082,233.665 143.219,211.467 139.156 C 206.350 138.219,198.512 137.856,194.132 138.353 " stroke="none" fill="#000000" fill-rule="evenodd"></path></g></svg>
